X: 164
T: Piney Ridge
B: canberra pickers and fiddlers
B: old time tunes update
B: tunes
M:4/4
L:1/8
Q: 1/4=100
K:D
V:1 
"D"D3f edBd | d3f edB2 | Dz df "A"(3efe de | "D"f2d2d2 z(D |
D2)df fede | f3f e2 f2 | "G"a2 a2 dfed |[1 "A"B2A2A3 D:| [2 "A"B2A2A2 DE ||
|:"D"F2 FE FEDE | [M:6/4]FAAB A3A A2DE | [M:4/4]FDFD EFDF | "A"A2 D4 DE |
"D"F2 FE FEDE | FAAB A3A | "G"ABdB AGFG | [1"A"A2 D2 D2 DE:| [2"A"A2 D2 D3 D ||
% abcbook-tune_id 67a7d9eccb05c12b92c00c91
% abcbook-tune_composer_id 
% abcbook-link-0 https://www.youtube.com/watch?v=xQADpt_XFxk
% abcbook-link-title-0 Piney Ridge
% abcbook-boost 0
% abcbook-difficulty 0
% abcbook-tags old time tunes
% abcbook-tablature 
% abcbook-transpose 
% abcbook-tuning DDAD
% abcbook-lastupdated 1739218223758
% abcbook-src-url 
% abcbook-soundfonts 
% abcbook-repeats 1


